X: 10852
M: C|
L: 1/8
K: Am	% Actually Adorian
a |\
g |\
a<ae<a c<ae2 | g<gdg B<gd2 |
a<ae<a c<ae>(g | a)>eg>B {B}A2Ag |\
a<ae<a c<ae^f | g<gd<g B<gd<g |\
a<a e<a g<be>(g | a)>eg>B {B}A2A |]


